Adwaita++/apps/scalable/archittetura.svg

<svg enable-background="new" height="128" viewBox="0 0 128 128" width="128" xmlns="http://www.w3.org/2000/svg">
  <circle cx="-66" cy="314" fill="#9059a1" r="0" transform="translate(0 -172)"/>
  <g enable-background="new" transform="translate(-530 -168.000005)">
    <g enable-background="new" fill="#62a0ea" transform="matrix(.325 0 0 -.23214286 490 234.21429)">
      <path d="m147.6923-180 344.6154.00002-.00002 344.61536h-344.61538z" fill="#3584e4"/>
      <g enable-background="new" fill="none" opacity=".15" stroke="#fff" stroke-width="2" transform="matrix(3.0769231 0 0 -4.3076923 -1507.6923 1008.9231)">
        <g transform="translate(530 .000005)">
          <path d="m116 211h-104"/>
          <path d="m110 263h-98"/>
          <path d="m23 200v64"/>
          <path d="m105 200v38"/>
          <path d="m104 203h-80"/>
        </g>
        <path d="m545 212v50"/>
        <path d="m646 219h-94"/>
        <path d="m643 210v10"/>
        <path d="m577 220v12"/>
        <path d="m563 220v12"/>
        <path d="m566 235h-12"/>
        <path d="m563 244v18"/>
        <path d="m566 247h-12"/>
        <path d="m577 232v22"/>
        <path d="m628 233h-12"/>
        <path d="m585 233h-11"/>
        <path d="m584 245h-10"/>
        <path d="m569 244v10"/>
        <path d="m577 251h-8"/>
      </g>
    </g>
    <g fill="none" stroke="#fff" stroke-width="2" transform="translate(530)">
      <path d="m23 210v54"/>
      <path d="m105 211h-82"/>
      <path d="m105 210v28"/>
      <circle cx="36" cy="232" r="3" stroke-linejoin="round"/>
      <path d="m86 233h-40"/>
      <circle cx="36" cy="244" r="3" stroke-linejoin="round"/>
      <path d="m86 245h-40"/>
      <path d="m104 219h-82"/>
      <path d="m110 263h-88"/>
    </g>
    <g transform="translate(540)">
      <path d="m104 223.15234-104.3791408 60.26236-2.7458592.5853v1h26.125 81zm-14 24.24805v23.59961h-40.875z" fill="#b38108"/>
      <path d="m104 222.15234-107.125 61.84766h26.125 81zm-14 24.24805v23.59961h-40.875z" fill="#f6d32d"/>
      <path d="m90 72.400391-40.875 23.599609v2l40.875-23.599609zm-89.66015625 37.599609-3.46484375 2h26.125 81v-2h-81z" fill="#e5a50a" transform="translate(0 172)"/>
      <g fill="none" stroke="#b38108">
        <g stroke-width="1.095445" transform="matrix(1 0 0 .83333333 0 47.333333)">
          <path d="m101.5 278v6"/>
          <path d="m86.5 278v6"/>
          <path d="m71.5 278v6"/>
          <path d="m56.5 278v6"/>
          <path d="m41.5 278v6"/>
          <path d="m26.5 278v6"/>
          <path d="m11.5 278v6"/>
        </g>
        <g>
          <path d="m98.5 281v3"/>
          <path d="m95.5 281v3"/>
          <path d="m92.5 281v3"/>
          <path d="m89.5 281v3"/>
          <path d="m83.5 281v3"/>
          <path d="m80.5 281v3"/>
          <path d="m77.5 281v3"/>
          <path d="m74.5 281v3"/>
          <path d="m68.5 281v3"/>
          <path d="m65.5 281v3"/>
          <path d="m62.5 281v3"/>
          <path d="m59.5 281v3"/>
          <path d="m53.5 281v3"/>
          <path d="m50.5 281v3"/>
          <path d="m47.5 281v3"/>
          <path d="m44.5 281v3"/>
          <path d="m38.5 281v3"/>
          <path d="m35.5 281v3"/>
          <path d="m32.5 281v3"/>
          <path d="m29.5 281v3"/>
          <path d="m23.5 281v3"/>
          <path d="m20.5 281v3"/>
          <path d="m17.5 281v3"/>
          <path d="m14.5 281v3"/>
          <path d="m8.5 281v3"/>
          <path d="m5.5 281v3"/>
        </g>
      </g>
    </g>
  </g>
</svg>

<svg xmlns="http://www.w3.org/2000/svg" width="128" height="128" version="1.0" viewBox="0 0 128 128" style="enable-background:new">
 <title id="title4162">
  Adwaita Icon Template
 </title>
 <defs>
  <clipPath id="clipPath1599" clipPathUnits="userSpaceOnUse">
   <path d="M 492.30769,-59.384613 393.84615,-197.23077 H 147.6923 v 482.46154 h 344.61539 z" style="fill:#1c71d8"/>
  </clipPath>
  <clipPath id="clipPath1204" clipPathUnits="userSpaceOnUse">
   <path style="fill:#e74747" d="M 278.54547,124 401.45456,1.0909127 392.00002,-276 H 87.999979 v 400 z"/>
  </clipPath>
 </defs>
 <g id="layer1" transform="translate(0,-172)">
  <g id="layer2" style="display:none">
   <rect style="fill:#f0f0f0" width="128" height="128" x="0" y="172"/>
   <rect width="16" height="16" x="160" y="172" style="fill:#f0f0f0"/>
   <text style="font-weight:bold;font-size:4px;line-height:125%;font-family:Cantarell" id="text863" x="0" y="164" xml:space="preserve">
    <tspan style="font-size:4px" id="tspan861" x="0" y="164">Hicolor</tspan>
   </text>
   <text id="text867" x="160" y="164" xml:space="preserve" style="font-weight:bold;font-size:4px;line-height:125%;font-family:Cantarell">
    <tspan id="tspan865" x="160" y="164" style="font-size:4px">Symbolic</tspan>
   </text>
   <circle cx="64" cy="236" r="59.504" style="opacity:0.1;fill:none;stroke:#000000;stroke-width:0.99000001;stroke-dasharray:0.99000001, 0.99000001"/>
   <rect width="87.01" height="111.01" x="20.5" y="180.5" rx="8.701" ry="7.929" style="opacity:0.1;fill:none;stroke:#000000;stroke-width:0.99000001;stroke-dasharray:0.99000001, 0.99000001"/>
   <rect width="103.01" height="103.01" x="12.49" y="184.5" rx="7.924" ry="7.924" style="opacity:0.1;fill:none;stroke:#000000;stroke-width:0.99000001;stroke-dasharray:0.99000001, 0.99000001"/>
   <rect width="111.01" height="87.01" x="8.49" y="200.5" rx="7.929" ry="8.701" style="opacity:0.1;fill:none;stroke:#000000;stroke-width:0.99000001;stroke-dasharray:0.99000001, 0.99000001"/>
   <path d="M 2.6203015e-5,289 H 128.00003" style="fill:none;stroke:#62a0ea;stroke-width:2"/>
  </g>
  <g id="layer9">
   <rect style="opacity:0.32000002;fill:#87bae1;fill-opacity:0;stroke:#3d3d3d;stroke-width:0.44194174;stroke-linejoin:round" width="0" height="0" x="-73.33" y="-458" transform="scale(1,-1)"/>
   <circle cx="-66" cy="314" r="0" style="fill:#9059a1"/>
   <rect style="opacity:0.32000002;fill:#87bae1;fill-opacity:0;stroke:#3d3d3d;stroke-width:0.44194174;stroke-linejoin:round" width="0" height="0" x="-71.33" y="-426" transform="scale(1,-1)"/>
   <rect style="opacity:0.32000002;fill:#87bae1;fill-opacity:0;stroke:#3d3d3d;stroke-width:0.53033006;stroke-linejoin:round" width="0" height="0" x="-136.4" y="-441.2" transform="scale(1,-1)"/>
   <g style="enable-background:new" transform="translate(-530,3.999995)">
    <g style="fill:#62a0ea;enable-background:new" transform="matrix(0.325,0,0,-0.23214286,490,234.21429)">
     <path style="fill:#3584e4" d="m 147.6923,-180 344.6154,2e-5 -2e-5,344.61536 H 147.6923 Z"/>
     <g transform="matrix(3.0769231,0,0,-4.3076923,-1507.6923,1008.9231)" style="opacity:0.15;enable-background:new">
      <path d="M 116,211 H 12" transform="translate(530,5e-6)" style="fill:none;stroke:#ffffff;stroke-width:2"/>
      <path style="fill:none;stroke:#ffffff;stroke-width:2" d="M 110,263 H 12" transform="translate(530,5e-6)"/>
      <path style="fill:none;stroke:#ffffff;stroke-width:2" d="m 23,200 v 64" transform="translate(530,5e-6)"/>
      <path d="m 105,200 v 38" transform="translate(530,5e-6)" style="fill:none;stroke:#ffffff;stroke-width:2"/>
      <path d="M 104,203 H 24" transform="translate(530,5e-6)" style="fill:none;stroke:#ffffff;stroke-width:2"/>
      <path style="fill:none;stroke:#ffffff;stroke-width:2" d="m 545,212 v 50"/>
      <path d="M 646,219 H 552" style="fill:none;stroke:#ffffff;stroke-width:2"/>
      <path d="m 643,210 v 10" style="fill:none;stroke:#ffffff;stroke-width:2"/>
      <path d="m 577,220 v 12" style="fill:none;stroke:#ffffff;stroke-width:2"/>
      <path d="m 563,220 v 12" style="fill:none;stroke:#ffffff;stroke-width:2"/>
      <path d="M 566,235 H 554" style="fill:none;stroke:#ffffff;stroke-width:2"/>
      <path d="m 563,244 v 18" style="fill:none;stroke:#ffffff;stroke-width:2"/>
      <path d="M 566,247 H 554" style="fill:none;stroke:#ffffff;stroke-width:2"/>
      <path d="m 577,232 v 22" style="fill:none;stroke:#ffffff;stroke-width:2"/>
      <path d="M 628,233 H 616" style="fill:none;stroke:#ffffff;stroke-width:2"/>
      <path d="M 585,233 H 574" style="fill:none;stroke:#ffffff;stroke-width:2"/>
      <path d="M 584,245 H 574" style="fill:none;stroke:#ffffff;stroke-width:2"/>
      <path d="m 569,244 v 10" style="fill:none;stroke:#ffffff;stroke-width:2"/>
      <path d="m 577,251 h -8" style="fill:none;stroke:#ffffff;stroke-width:2"/>
     </g>
    </g>
    <g transform="translate(530)" style="stroke:#ffffff">
     <path d="m 23,210 v 54" style="fill:none;stroke:#ffffff;stroke-width:2"/>
     <path style="fill:none;stroke:#ffffff;stroke-width:2" d="M 105,211 H 23"/>
     <path style="fill:none;stroke:#ffffff;stroke-width:2" d="m 105,210 v 28"/>
     <circle cx="36" cy="232" r="3" style="fill:none;stroke:#ffffff;stroke-width:2;stroke-linejoin:round"/>
     <path d="M 86,233 H 46" style="fill:none;stroke:#ffffff;stroke-width:2"/>
     <circle style="fill:none;stroke:#ffffff;stroke-width:2;stroke-linejoin:round" cx="36" cy="244" r="3"/>
     <path style="fill:none;stroke:#ffffff;stroke-width:1.99999988" d="M 86,245 H 46"/>
     <path d="M 104,219 H 22" style="fill:none;stroke:#ffffff;stroke-width:2"/>
     <path d="M 110,263 H 22" style="fill:none;stroke:#ffffff;stroke-width:2"/>
    </g>
    <g transform="translate(540)">
     <path style="fill:#b38108" d="M 104,223.15234 -0.3791408,283.4147 -3.125,284 v 1 H 23 104 Z M 90,247.40039 V 271 H 49.125 Z"/>
     <path d="M 104,222.15234 -3.125,284 H 23 104 Z M 90,246.40039 V 270 H 49.125 Z" style="fill:#f6d32d"/>
     <path d="M 90,72.400391 49.125,96 v 2 L 90,74.400391 Z M 0.33984375,110 -3.125,112 H 23 104 v -2 H 23 Z" transform="translate(0,172)" style="fill:#e5a50a"/>
     <g style="stroke:#b38108">
      <g transform="matrix(1,0,0,0.83333333,0,47.333333)" style="stroke:#b38108;stroke-width:1.09544516">
       <path d="m 101.5,278 v 6" style="fill:none;stroke:#b38108;stroke-width:1.09544516px"/>
       <path style="fill:none;stroke:#b38108;stroke-width:1.09544516px" d="m 86.5,278 v 6"/>
       <path style="fill:none;stroke:#b38108;stroke-width:1.09544516px" d="m 71.5,278 v 6"/>
       <path d="m 56.5,278 v 6" style="fill:none;stroke:#b38108;stroke-width:1.09544516px"/>
       <path d="m 41.5,278 v 6" style="fill:none;stroke:#b38108;stroke-width:1.09544516px"/>
       <path style="fill:none;stroke:#b38108;stroke-width:1.09544516px" d="m 26.5,278 v 6"/>
       <path d="m 11.5,278 v 6" style="fill:none;stroke:#b38108;stroke-width:1.09544516px"/>
      </g>
      <g style="stroke:#b38108">
       <path style="fill:none;stroke:#b38108;stroke-width:1px" d="m 98.5,281 v 3"/>
       <path d="m 95.5,281 v 3" style="fill:none;stroke:#b38108;stroke-width:1px"/>
       <path d="m 92.5,281 v 3" style="fill:none;stroke:#b38108;stroke-width:1px"/>
       <path style="fill:none;stroke:#b38108;stroke-width:1px" d="m 89.5,281 v 3"/>
       <path d="m 83.5,281 v 3" style="fill:none;stroke:#b38108;stroke-width:1px"/>
       <path style="fill:none;stroke:#b38108;stroke-width:1px" d="m 80.5,281 v 3"/>
       <path style="fill:none;stroke:#b38108;stroke-width:1px" d="m 77.5,281 v 3"/>
       <path d="m 74.5,281 v 3" style="fill:none;stroke:#b38108;stroke-width:1px"/>
       <path d="m 68.5,281 v 3" style="fill:none;stroke:#b38108;stroke-width:1px"/>
       <path style="fill:none;stroke:#b38108;stroke-width:1px" d="m 65.5,281 v 3"/>
       <path style="fill:none;stroke:#b38108;stroke-width:1px" d="m 62.5,281 v 3"/>
       <path d="m 59.5,281 v 3" style="fill:none;stroke:#b38108;stroke-width:1px"/>
       <path style="fill:none;stroke:#b38108;stroke-width:1px" d="m 53.5,281 v 3"/>
       <path d="m 50.5,281 v 3" style="fill:none;stroke:#b38108;stroke-width:1px"/>
       <path d="m 47.5,281 v 3" style="fill:none;stroke:#b38108;stroke-width:1px"/>
       <path style="fill:none;stroke:#b38108;stroke-width:1px" d="m 44.5,281 v 3"/>
       <path style="fill:none;stroke:#b38108;stroke-width:1px" d="m 38.5,281 v 3"/>
       <path d="m 35.5,281 v 3" style="fill:none;stroke:#b38108;stroke-width:1px"/>
       <path d="m 32.5,281 v 3" style="fill:none;stroke:#b38108;stroke-width:1px"/>
       <path style="fill:none;stroke:#b38108;stroke-width:1px" d="m 29.5,281 v 3"/>
       <path d="m 23.5,281 v 3" style="fill:none;stroke:#b38108;stroke-width:1px"/>
       <path style="fill:none;stroke:#b38108;stroke-width:1px" d="m 20.5,281 v 3"/>
       <path style="fill:none;stroke:#b38108;stroke-width:1px" d="m 17.5,281 v 3"/>
       <path d="m 14.5,281 v 3" style="fill:none;stroke:#b38108;stroke-width:1px"/>
       <path style="fill:none;stroke:#b38108;stroke-width:1px" d="m 8.5,281 v 3"/>
       <path d="m 5.5,281 v 3" style="fill:none;stroke:#b38108;stroke-width:1px"/>
      </g>
     </g>
    </g>
   </g>
  </g>
 </g>
</svg>
